resources/svg/regular/info-square.svg

<svg xmlns="http://www.w3.org/2000/svg" fill="currentColor" stroke="none" viewBox="0 0 24 24"><path d="M20,3H4C3.447,3,3,3.448,3,4v16c0,0.552,0.447,1,1,1h16c0.553,0,1-0.448,1-1V4C21,3.448,20.553,3,20,3z M19,19H5V5h14V19z"/><path d="M11 7H13V9H11zM11 11H13V17H11z"/></svg>

<svg xmlns="http://www.w3.org/2000/svg" fill="currentColor" stroke="none" viewBox="0 0 24 24"><path d="M20 3H4a1 1 0 0 0-1 1v16a1 1 0 0 0 1 1h16a1 1 0 0 0 1-1V4a1 1 0 0 0-1-1zm-1 16H5V5h14v14z"/><path d="M11 7h2v2h-2zm0 4h2v6h-2z"/></svg>
